X:9
T:Wings of a Goney
C:Traditional
L:1/8
M:4/4
K:Dm
DE |: F2 AA E2 GE | D>E DC A,2 CD | E2 G2 A2 EC | C D D4 :|
DA | A3G c2 BG | A2 GE D2 DA | A3G c2 BG | GA A4 |
DE | F2 AA E2 GE | D>E DC A,2 CD | E2 G2 A2 EC | C D D4 :|
%%textfont Times-Roman 20
%%begintext
Oh if I had the wings of a goney boys I'd spread 'em and fly home
I'd leave all of Greenland's icy shores, for the right whale here is none
Oh the weather's rough and the winds do blow, and there's little comfort here
I'd rather be snug in a Deptford pub a-drinking a strong beer

Oh a man must be mad or wanting money bad to go venture catching whales
For he may be drowned when the fish turns around or his head smashed in by its' tail
They world seems grand to a young greenhand, and his heart is high when he goes
In a very short burst he'd as soon as hear a curse as the cry of "There she blows"

All hands on deck, now for God's sake, move quickly if you can
Oh he stumbles on deck, so dizzy and so sick, for his life he don't give a damn
High overhead the great flukes spread, and the mate gives the whale the iron
And soon the blood, in purple flood, from his spout all comes a-flyin'

Oh these trials we bare for neigh on four years, till our flyin' jib points to home
We're supposed for our toil to get a bonus on the oil, and an equal share of the bone
So we go to the agent to settle for our debt, and it's there we have cause to repent
For we've slaved away four years of our lives, and we've earned about three pounds, ten
%%endtext